X:1
T:Hor ch'è lungi
T:Horatio Vecchi
T:Source : Canzonette a tre voci di H.Vecchi et di G Capilupi da Modena---Venetia---Ang.Gardano---1597. Editor : André Vierendeels (02/03/17).
T:Notes : Original clefs : C1, C1, F' Editorial accidentals above the staff Lute accompaniment not added in this edition
T:Hor ch'è lungi
T:©
T:©
C:Horatio Vecchi
Z:©
%%score [ 1 2 3 ]
L:1/8
Q:1/4=120
M:2/2
K:F
V:1 treble nm="Soprano 1" snm="S 1"
V:2 treble nm="Soprano 2" snm="S 2"
V:3 bass nm="Bass" snm="B"
V:1
"^1)" G6 A2 | B4 B2 c2 | A4 A2 d2 | c8 | =B4 c4- |"^b" c4 B4 | A4 G4- | G4 ^F4 |[M:2/4] G4 :: %9
w: Hor ch'è|lun- g'il mio|be- ne, pa-|tis-|co'a- ma-|* re|pe- *||ne,|
w: O- gni|luo- go m'at-|tri- sta, sen-|za|tu- a|_ dol-|ce vi-||sta,|
[M:2/2] d2 c2 B4 | c2 B2 A4 | B4 d4- | d4 c2 c2 | c2 c2 c2 c2 | c2 d2 _e4- | e2 dc B2 c2 | %16
w: tor- na, tor-|na ben mi-|o, deh|_ vi- ver|sen- za te, co-|me pos- s'i-||
w: |||||||
 d2 cB A2 G2 | A4 !fermata!G4 :| %18
w: |* o?|
w: ||
V:2
"^2)""^1)" B6 A2 | G4 G2 G2 | ^F4 F2 B2 | A4 G4 | F4 G4 | c8- | c4 B4 | A8 |[M:2/4] G4 :: %9
w: Hor ch'è|lun- g'il mio|be- ne, pa-|tis- co'a-|ma- re|pe-|||ne,|
w: E se|ben ho- ra|can- to, io|mi con-|su- mo'in|pian-|||to,|
[M:2/2] B2 c2 d4 | _e2 e2 c4 | d4 B4- | B4 A2 A2 | A2 A2 A2 A2 |"^b" A2 =B2 c2 BA | G6 FE | %16
w: tor- na, tor-|na ben mi-|o, deh|_ vi- ver|sen- za te, co-|me pos- s'i- * *||
w: |||||||
 D2 E2 ^F2 G2- | G2 ^F2 !fermata!G4 :| %18
w: |* * o?|
w: ||
V:3
"^3)""^1)""^4)""^5)" G,6 F,2 | _E,4 E,2 C,2 | D,4 D,2 B,,2 | F,4 _E,4 | D,4 C,4 | A,,8 | D,8- | %7
w: Hor ch'è|lun- g'il mio|be- ne, pa-|tis- co'a-|ma- re|pe-||
w: E' mi-|ra- col d'A-|mo- re, ch'io|vi- va|sen- za|co-||
w: Ma ohi-|mè tu non|o- di, e|del mio|mal ti|go-||
 D,8 |[M:2/4] G,,4 ::[M:2/2] G,2 A,2 B,4 | _E,2 E,2 F,4 | B,,4 B,4- | B,4 F,2 F,2 | %13
w: |ne,|tor- na, tor-|na ben mi-|o, deh|_ vi- ver|
w: |re,|||||
w: |di,|go- di, go-|di cru- de-|le, ch'al|_ fin di-|
 F,2 F,2 F,2 F,2 | F,2 D,2 C,4- | C,2 B,,A,, G,,2 A,,2 | B,,2 C,2 D,4- | D,4 !fermata!G,,4 :| %18
w: sen- za te, co-|me pos- s'i-|||* o?|
w: |||||
w: rai A- man- te|o fe- de-|||* le.|

